src/assets/svg/ui.svg

<svg xmlns="http://www.w3.org/2000/svg" viewBox="0 0 24 24" [attr.fill]="fillColor">
    <path d="M21 16v-4a8.983 8.983 0 0 0-3.356-7h2.633a1.991 1.991 0 1 0-.009-2h-4.41a3.981 3.981 0 0 0-7.716 0H3.723a1.991 1.991 0 1 0 .009 2h2.624A8.983 8.983 0 0 0 3 12v4a3 3 0 0 0-3 3v2a3 3 0 0 0 3 3h2a3 3 0 0 0 3-3v-2a3 3 0 0 0-3-3v-4a7 7 0 0 1 3.521-6.065 3.963 3.963 0 0 0 6.958 0A7 7 0 0 1 19 12v4a3 3 0 0 0-3 3v2a3 3 0 0 0 3 3h2a3 3 0 0 0 3-3v-2a3 3 0 0 0-3-3ZM6 19v2a1 1 0 0 1-1 1H3a1 1 0 0 1-1-1v-2a1 1 0 0 1 1-1h2a1 1 0 0 1 1 1Zm6-13a2 2 0 1 1 2-2 2 2 0 0 1-2 2Zm10 15a1 1 0 0 1-1 1h-2a1 1 0 0 1-1-1v-2a1 1 0 0 1 1-1h2a1 1 0 0 1 1 1Z"/>
</svg>

<?xml version="1.0" encoding="UTF-8"?>
<svg xmlns="http://www.w3.org/2000/svg" id="Outline" viewBox="0 0 24 24" class="area-item-icon"><path d="M21,16V12a8.983,8.983,0,0,0-3.356-7h2.633a1.991,1.991,0,1,0-.009-2h-4.41A3.981,3.981,0,0,0,8.142,3H3.723a1.991,1.991,0,1,0,.009,2H6.356A8.983,8.983,0,0,0,3,12v4a3,3,0,0,0-3,3v2a3,3,0,0,0,3,3H5a3,3,0,0,0,3-3V19a3,3,0,0,0-3-3V12A7,7,0,0,1,8.521,5.935a3.963,3.963,0,0,0,6.958,0A7,7,0,0,1,19,12v4a3,3,0,0,0-3,3v2a3,3,0,0,0,3,3h2a3,3,0,0,0,3-3V19A3,3,0,0,0,21,16ZM6,19v2a1,1,0,0,1-1,1H3a1,1,0,0,1-1-1V19a1,1,0,0,1,1-1H5A1,1,0,0,1,6,19ZM12,6a2,2,0,1,1,2-2A2,2,0,0,1,12,6ZM22,21a1,1,0,0,1-1,1H19a1,1,0,0,1-1-1V19a1,1,0,0,1,1-1h2a1,1,0,0,1,1,1Z"/></svg>
